;FLAVOR:UltiGCode
;TIME:2057
;MATERIAL:2252
;MATERIAL2:0
;NOZZLE_DIAMETER:0.4
;Generated with Cura_SteamEngine master
M82 ;absolute extrusion mode

G92 E0
G10
;LAYER_COUNT:39
;LAYER:0
M107
G0 F4320 X101.465 Y77.057 Z0.27
;TYPE:SKIRT
G11
G1 F1800 X102.008 Y76.384 E0.08172
G1 X102.638 Y75.685 E0.17064
G1 X103.199 Y75.123 E0.24568
G1 X103.86 Y74.586 E0.32616
G1 X104.624 Y74.031 E0.4154
G1 X105.288 Y73.597 E0.49036
G1 X106.047 Y73.209 E0.57092
G1 X106.902 Y72.828 E0.65937
G1 X107.642 Y72.542 E0.73435
G1 X108.475 Y72.317 E0.81589
G1 X109.4 Y72.121 E0.90524
G1 X110.183 Y71.996 E0.98017
G1 X111.032 Y71.95 E1.06052
G1 X111.968 Y71.95 E1.14897
G1 X112.76 Y71.99 E1.22391
G1 X113.6 Y72.121 E1.30425
G1 X114.525 Y72.317 E1.3936
G1 X115.292 Y72.52 E1.46858
G1 X116.098 Y72.828 E1.55012
G1 X116.953 Y73.209 E1.63857
G1 X117.661 Y73.568 E1.71359
G1 X118.376 Y74.031 E1.79409
G1 X119.14 Y74.586 E1.88332
G1 X119.758 Y75.084 E1.95833
G1 X120.362 Y75.685 E2.03885
G1 X120.992 Y76.384 E2.12777
G1 X121.493 Y76.999 E2.20273
G1 X121.965 Y77.724 E2.28449
G1 X122.433 Y78.536 E2.37305
G1 X122.794 Y79.242 E2.44799
G1 X123.096 Y80.023 E2.52712
G1 X123.388 Y80.917 E2.61599
G1 X123.596 Y81.683 E2.691
G1 X123.734 Y82.543 E2.77331
G1 X123.832 Y83.48 E2.86234
G1 X123.875 Y84.299 E2.93984
G1 X123.875 Y138.699 E8.08064
G1 X123.832 Y139.517 E8.15805
G1 X123.734 Y140.455 E8.24717
G1 X123.612 Y141.239 E8.32215
G1 X123.388 Y142.082 E8.40458
G1 X123.096 Y142.976 E8.49345
G1 X122.812 Y143.717 E8.56845
G1 X122.435 Y144.46 E8.64718
G1 X121.967 Y145.273 E8.73583
G1 X121.537 Y145.94 E8.81082
G1 X120.992 Y146.616 E8.89288
G1 X120.362 Y147.315 E8.98181
G1 X119.801 Y147.877 E9.05685
G1 X119.139 Y148.415 E9.13746
G1 X118.376 Y148.969 E9.22657
G1 X117.711 Y149.403 E9.30161
G1 X116.958 Y149.788 E9.38153
G1 X116.102 Y150.17 E9.47011
G1 X115.362 Y150.457 E9.54511
G1 X114.525 Y150.683 E9.62704
G1 X113.6 Y150.879 E9.7164
G1 X112.817 Y151.004 E9.79133
G1 X111.968 Y151.05 E9.87167
G1 X111.032 Y151.05 E9.96013
G1 X110.24 Y151.01 E10.03507
G1 X109.4 Y150.879 E10.11541
G1 X108.475 Y150.683 E10.20476
G1 X107.708 Y150.48 E10.27974
G1 X106.898 Y150.17 E10.36169
G1 X106.042 Y149.788 E10.45028
G1 X105.334 Y149.429 E10.52529
G1 X104.624 Y148.969 E10.60524
G1 X103.861 Y148.415 E10.69434
G1 X103.243 Y147.917 E10.76935
G1 X102.638 Y147.315 E10.85
G1 X102.008 Y146.616 E10.93893
G1 X101.507 Y146.001 E11.01389
G1 X101.033 Y145.273 E11.09598
G1 X100.565 Y144.46 E11.18463
G1 X100.204 Y143.753 E11.25965
G1 X99.904 Y142.976 E11.33835
G1 X99.612 Y142.082 E11.42723
G1 X99.404 Y141.316 E11.50224
G1 X99.266 Y140.457 E11.58445
G1 X99.168 Y139.521 E11.67339
G1 X99.125 Y138.701 E11.75099
G1 X99.125 Y84.301 E16.89179
G1 X99.168 Y83.484 E16.9691
G1 X99.266 Y82.545 E17.05832
G1 X99.388 Y81.761 E17.1333
G1 X99.612 Y80.917 E17.21582
G1 X99.904 Y80.023 E17.30469
G1 X100.188 Y79.282 E17.37968
G1 X100.567 Y78.536 E17.45876
G1 X101.035 Y77.724 E17.54732
G1 X101.465 Y77.057 E17.62232
G0 F4320 X101.76 Y77.247
G1 F1800 X102.268 Y76.618 E17.69872
G1 X102.898 Y75.919 E17.78765
G1 X103.447 Y75.37 E17.86102
G1 X104.065 Y74.869 E17.9362
G1 X104.829 Y74.314 E18.02544
G1 X105.48 Y73.891 E18.0988
G1 X106.189 Y73.529 E18.17403
G1 X107.044 Y73.148 E18.26249
G1 X107.768 Y72.869 E18.33581
G1 X108.547 Y72.659 E18.41205
G1 X109.472 Y72.463 E18.50141
G1 X110.238 Y72.342 E18.57469
G1 X111.032 Y72.3 E18.64983
G1 X111.968 Y72.3 E18.73828
G1 X112.743 Y72.34 E18.81162
G1 X113.528 Y72.463 E18.8867
G1 X114.453 Y72.659 E18.97606
G1 X115.202 Y72.859 E19.04932
G1 X115.956 Y73.148 E19.12562
G1 X116.811 Y73.529 E19.21408
G1 X117.502 Y73.88 E19.28732
G1 X118.171 Y74.314 E19.36268
G1 X118.935 Y74.869 E19.45192
G1 X119.538 Y75.356 E19.52516
G1 X120.102 Y75.919 E19.60047
G1 X120.732 Y76.618 E19.6894
G1 X121.221 Y77.22 E19.76269
G1 X121.662 Y77.898 E19.83912
G1 X122.13 Y78.71 E19.92769
G1 X122.482 Y79.401 E20.00097
G1 X122.763 Y80.132 E20.07498
G1 X123.055 Y81.026 E20.16386
G1 X123.258 Y81.774 E20.2371
G1 X123.386 Y82.579 E20.31413
G1 X123.484 Y83.516 E20.40316
G1 X123.525 Y84.299 E20.47725
G1 X123.525 Y138.699 E25.61805
G1 X123.484 Y139.481 E25.69205
G1 X123.386 Y140.419 E25.78118
G1 X123.266 Y141.185 E25.85444
G1 X123.055 Y141.973 E25.93153
G1 X122.763 Y142.867 E26.02041
G1 X122.485 Y143.591 E26.0937
G1 X122.132 Y144.285 E26.16728
G1 X121.664 Y145.098 E26.25593
G1 X121.243 Y145.75 E26.32927
G1 X120.732 Y146.382 E26.40607
G1 X120.102 Y147.081 E26.495
G1 X119.553 Y147.63 E26.56837
G1 X118.933 Y148.132 E26.64375
G1 X118.17 Y148.686 E26.73286
G1 X117.52 Y149.109 E26.80615
G1 X116.816 Y149.469 E26.88087
G1 X115.96 Y149.851 E26.96945
G1 X115.236 Y150.13 E27.04277
G1 X114.453 Y150.341 E27.1194
G1 X113.528 Y150.537 E27.20876
G1 X112.762 Y150.658 E27.28204
G1 X111.968 Y150.7 E27.35718
G1 X111.032 Y150.7 E27.44563
G1 X110.257 Y150.66 E27.51897
G1 X109.472 Y150.537 E27.59406
G1 X108.547 Y150.341 E27.68341
G1 X107.798 Y150.141 E27.75667
G1 X107.04 Y149.851 E27.83336
G1 X106.184 Y149.469 E27.92194
G1 X105.493 Y149.117 E27.99523
G1 X104.83 Y148.686 E28.06996
G1 X104.067 Y148.132 E28.15906
G1 X103.463 Y147.645 E28.23238
G1 X102.898 Y147.081 E28.30782
G1 X102.268 Y146.382 E28.39675
G1 X101.779 Y145.78 E28.47004
G1 X101.336 Y145.098 E28.54689
G1 X100.868 Y144.285 E28.63554
G1 X100.517 Y143.594 E28.70878
G1 X100.237 Y142.867 E28.7824
G1 X99.945 Y141.973 E28.87128
G1 X99.742 Y141.225 E28.94452
G1 X99.614 Y140.421 E29.02146
G1 X99.516 Y139.485 E29.11039
G1 X99.475 Y138.701 E29.18458
G1 X99.475 Y84.301 E34.32538
G1 X99.516 Y83.52 E34.39929
G1 X99.614 Y82.581 E34.48851
G1 X99.734 Y81.815 E34.56178
G1 X99.945 Y81.026 E34.63896
G1 X100.237 Y80.132 E34.72783
G1 X100.515 Y79.408 E34.80112
G1 X100.87 Y78.71 E34.87512
G1 X101.338 Y77.898 E34.96369
G1 X101.76 Y77.247 E35.037
G0 F4320 X102.054 Y77.438
G1 F1800 X102.528 Y76.852 E35.10823
G1 X103.158 Y76.153 E35.19715
G1 X103.694 Y75.618 E35.26872
G1 X104.271 Y75.152 E35.33881
G1 X105.035 Y74.597 E35.42805
G1 X105.67 Y74.185 E35.49958
G1 X106.332 Y73.848 E35.56978
G1 X107.187 Y73.467 E35.65823
G1 X107.894 Y73.196 E35.72978
G1 X108.62 Y73.002 E35.8008
G1 X109.545 Y72.806 E35.89015
G1 X110.293 Y72.688 E35.96171
G1 X111.032 Y72.65 E36.03164
G1 X111.968 Y72.65 E36.12009
G1 X112.724 Y72.69 E36.19163
G1 X113.455 Y72.806 E36.26158
G1 X114.38 Y73.002 E36.35093
G1 X115.112 Y73.198 E36.42254
G1 X115.813 Y73.467 E36.4935
G1 X116.668 Y73.848 E36.58195
G1 X117.343 Y74.193 E36.65359
G1 X117.965 Y74.597 E36.72368
G1 X118.729 Y75.152 E36.81291
G1 X119.317 Y75.629 E36.88447
G1 X119.842 Y76.153 E36.95456
G1 X120.472 Y76.852 E37.04349
G1 X120.948 Y77.441 E37.11505
G1 X121.358 Y78.073 E37.18624
G1 X121.826 Y78.885 E37.27481
G1 X122.169 Y79.56 E37.34636
G1 X122.43 Y80.24 E37.41519
G1 X122.722 Y81.134 E37.50406
G1 X122.919 Y81.866 E37.5757
G1 X123.038 Y82.616 E37.64746
G1 X123.136 Y83.553 E37.73649
G1 X123.175 Y84.299 E37.80708
G1 X123.175 Y138.699 E42.94788
G1 X123.136 Y139.445 E43.01848
G1 X123.038 Y140.383 E43.1076
G1 X122.92 Y141.131 E43.17916
G1 X122.722 Y141.865 E43.251
G1 X122.43 Y142.759 E43.33988
G1 X122.158 Y143.465 E43.41138
G1 X121.828 Y144.111 E43.47993
G1 X121.36 Y144.924 E43.56858
G1 X120.948 Y145.559 E43.64011
G1 X120.472 Y146.148 E43.71167
G1 X119.842 Y146.847 E43.8006
G1 X119.306 Y147.382 E43.87216
G1 X118.728 Y147.849 E43.94238
G1 X117.965 Y148.403 E44.03149
G1 X117.329 Y148.815 E44.1031
G1 X116.673 Y149.149 E44.17267
G1 X115.817 Y149.531 E44.26125
G1 X115.11 Y149.803 E44.33283
G1 X114.38 Y149.998 E44.40424
G1 X113.455 Y150.194 E44.49359
G1 X112.707 Y150.312 E44.56515
G1 X111.968 Y150.35 E44.63508
G1 X111.032 Y150.35 E44.72353
G1 X110.276 Y150.31 E44.79507
G1 X109.545 Y150.194 E44.86501
G1 X108.62 Y149.998 E44.95437
G1 X107.888 Y149.802 E45.02598
G1 X107.183 Y149.531 E45.09735
G1 X106.327 Y149.149 E45.18594
G1 X105.653 Y148.804 E45.25749
G1 X105.035 Y148.403 E45.32711
G1 X104.272 Y147.849 E45.41621
G1 X103.684 Y147.372 E45.48776
G1 X103.158 Y146.847 E45.55799
G1 X102.528 Y146.148 E45.64692
G1 X102.052 Y145.559 E45.71848
G1 X101.64 Y144.924 E45.79001
G1 X101.172 Y144.111 E45.87866
G1 X100.829 Y143.435 E45.9503
G1 X100.57 Y142.759 E46.01871
G1 X100.278 Y141.865 E46.10758
G1 X100.081 Y141.133 E46.17922
G1 X99.962 Y140.384 E46.25088
G1 X99.864 Y139.448 E46.33982
G1 X99.825 Y138.701 E46.41051
G1 X99.825 Y84.301 E51.55131
G1 X99.864 Y83.556 E51.62181
G1 X99.962 Y82.617 E51.71102
G1 X100.08 Y81.869 E51.78258
G1 X100.278 Y81.134 E51.85452
G1 X100.57 Y80.24 E51.94339
G1 X100.842 Y79.534 E52.01489
G1 X101.174 Y78.885 E52.08378
G1 X101.642 Y78.073 E52.17235
G1 X102.054 Y77.438 E52.24388
G0 F4320 X102.348 Y77.629
G1 F1800 X102.788 Y77.087 E52.30985
G1 X103.418 Y76.388 E52.39878
G1 X103.942 Y75.867 E52.4686
G1 X104.477 Y75.435 E52.53359
G1 X105.241 Y74.88 E52.62282
G1 X105.861 Y74.479 E52.6926
G1 X106.474 Y74.168 E52.75756
G1 X107.329 Y73.787 E52.84601
G1 X108.019 Y73.523 E52.91583
G1 X108.692 Y73.344 E52.98164
G1 X109.617 Y73.148 E53.07099
G1 X110.347 Y73.034 E53.14081
G1 X111.032 Y73 E53.20562
G1 X111.968 Y73 E53.29408
G1 X112.706 Y73.04 E53.36392
G1 X113.383 Y73.148 E53.42871
G1 X114.308 Y73.344 E53.51806
G1 X115.021 Y73.536 E53.58784
G1 X115.671 Y73.787 E53.65368
G1 X116.526 Y74.168 E53.74214
G1 X117.183 Y74.505 E53.81192
G1 X117.759 Y74.88 E53.87687
G1 X118.523 Y75.435 E53.96611
G1 X119.097 Y75.901 E54.03597
G1 X119.582 Y76.388 E54.10093
G1 X120.212 Y77.087 E54.18985
G1 X120.676 Y77.661 E54.2596
G1 X121.055 Y78.248 E54.32563
G1 X121.523 Y79.06 E54.4142
G1 X121.857 Y79.719 E54.48401
G1 X122.098 Y80.349 E54.54776
G1 X122.39 Y81.243 E54.63663
G1 X122.581 Y81.956 E54.70638
G1 X122.69 Y82.652 E54.77296
G1 X122.788 Y83.589 E54.86199
G1 X122.825 Y84.299 E54.92917
G1 X122.825 Y138.699 E60.06997
G1 X122.788 Y139.408 E60.13707
G1 X122.69 Y140.346 E60.22619
G1 X122.574 Y141.076 E60.29604
G1 X122.39 Y141.756 E60.36261
G1 X122.098 Y142.65 E60.45149
G1 X121.831 Y143.339 E60.52131
G1 X121.525 Y143.936 E60.58471
G1 X121.057 Y144.749 E60.67336
G1 X120.654 Y145.368 E60.74316
G1 X120.212 Y145.913 E60.80947
G1 X119.582 Y146.612 E60.8984
G1 X119.058 Y147.133 E60.96822
G1 X118.522 Y147.566 E61.03334
G1 X117.759 Y148.12 E61.12244
G1 X117.139 Y148.521 E61.19222
G1 X116.53 Y148.83 E61.25676
G1 X115.674 Y149.212 E61.34534
G1 X114.985 Y149.476 E61.41506
G1 X114.308 Y149.656 E61.48126
G1 X113.383 Y149.852 E61.57062
G1 X112.653 Y149.966 E61.64044
G1 X111.968 Y150 E61.70525
G1 X111.032 Y150 E61.7937
G1 X110.294 Y149.96 E61.86354
G1 X109.617 Y149.852 E61.92833
G1 X108.692 Y149.656 E62.01768
G1 X107.979 Y149.464 E62.08746
G1 X107.326 Y149.212 E62.15361
G1 X106.47 Y148.83 E62.24219
G1 X105.812 Y148.492 E62.31209
G1 X105.241 Y148.12 E62.37649
G1 X104.478 Y147.566 E62.4656
G1 X103.905 Y147.1 E62.53539
G1 X103.418 Y146.612 E62.60054
G1 X102.788 Y145.913 E62.68947
G1 X102.324 Y145.339 E62.75922
G1 X101.943 Y144.749 E62.82559
G1 X101.475 Y143.936 E62.91424
G1 X101.142 Y143.277 E62.98401
G1 X100.902 Y142.65 E63.04746
G1 X100.61 Y141.756 E63.13633
G1 X100.419 Y141.043 E63.20608
G1 X100.31 Y140.348 E63.27257
G1 X100.212 Y139.412 E63.3615
G1 X100.175 Y138.701 E63.42878
G1 X100.175 Y84.301 E68.56958
G1 X100.212 Y83.593 E68.63658
G1 X100.31 Y82.654 E68.7258
G1 X100.426 Y81.924 E68.79565
G1 X100.61 Y81.243 E68.86231
G1 X100.902 Y80.349 E68.95118
G1 X101.169 Y79.66 E69.02101
G1 X101.477 Y79.06 E69.08475
G1 X101.945 Y78.248 E69.17331
G1 X102.348 Y77.629 E69.24311
G0 F4320 X102.641 Y77.82
G1 F1800 X103.048 Y77.321 E69.30397
G1 X103.678 Y76.622 E69.39289
G1 X104.189 Y76.115 E69.46092
G1 X104.682 Y75.718 E69.52073
G1 X105.446 Y75.163 E69.60997
G1 X106.051 Y74.774 E69.67794
G1 X106.616 Y74.488 E69.73778
G1 X107.471 Y74.107 E69.82624
G1 X108.144 Y73.851 E69.89428
G1 X108.765 Y73.687 E69.95498
G1 X109.69 Y73.491 E70.04433
G1 X110.401 Y73.381 E70.11232
G1 X111.032 Y73.35 E70.17202
G1 X111.968 Y73.35 E70.26048
G1 X112.686 Y73.39 E70.32843
G1 X113.31 Y73.491 E70.38817
G1 X114.235 Y73.687 E70.47752
G1 X114.93 Y73.875 E70.54556
G1 X115.529 Y74.107 E70.60626
G1 X116.384 Y74.488 E70.69472
G1 X117.023 Y74.817 E70.76264
G1 X117.554 Y75.163 E70.82253
G1 X118.318 Y75.718 E70.91177
G1 X118.875 Y76.173 E70.97973
G1 X119.322 Y76.622 E71.03961
G1 X119.952 Y77.321 E71.12853
G1 X120.403 Y77.881 E71.19648
G1 X120.752 Y78.423 E71.2574
G1 X121.22 Y79.235 E71.34596
G1 X121.544 Y79.877 E71.41392
G1 X121.765 Y80.458 E71.47266
G1 X122.057 Y81.352 E71.56154
G1 X122.242 Y82.047 E71.6295
G1 X122.342 Y82.688 E71.69081
G1 X122.44 Y83.625 E71.77984
G1 X122.475 Y84.299 E71.84362
G1 X122.475 Y138.699 E76.98442
G1 X122.44 Y139.372 E77.0481
G1 X122.342 Y140.31 E77.13723
G1 X122.228 Y141.02 E77.20518
G1 X122.057 Y141.647 E77.2666
G1 X121.765 Y142.541 E77.35547
G1 X121.504 Y143.212 E77.42351
G1 X121.222 Y143.761 E77.48183
G1 X120.754 Y144.574 E77.57048
G1 X120.361 Y145.177 E77.6385
G1 X119.952 Y145.679 E77.69969
G1 X119.322 Y146.378 E77.78862
G1 X118.811 Y146.885 E77.85664
G1 X118.316 Y147.283 E77.91666
G1 X117.553 Y147.837 E78.00577
G1 X116.949 Y148.226 E78.07366
G1 X116.388 Y148.51 E78.13308
G1 X115.532 Y148.892 E78.22166
G1 X114.859 Y149.148 E78.28971
G1 X114.235 Y149.313 E78.3507
G1 X113.31 Y149.509 E78.44006
G1 X112.599 Y149.619 E78.50804
G1 X111.968 Y149.65 E78.56775
G1 X111.032 Y149.65 E78.6562
G1 X110.314 Y149.61 E78.72415
G1 X109.69 Y149.509 E78.78389
G1 X108.765 Y149.313 E78.87324
G1 X108.07 Y149.125 E78.94128
G1 X107.468 Y148.892 E79.00228
G1 X106.612 Y148.51 E79.09086
G1 X105.973 Y148.181 E79.15878
G1 X105.447 Y147.837 E79.21818
G1 X104.684 Y147.283 E79.30728
G1 X104.126 Y146.828 E79.37532
G1 X103.678 Y146.378 E79.43533
G1 X103.048 Y145.679 E79.52425
G1 X102.597 Y145.119 E79.5922
G1 X102.246 Y144.574 E79.65346
G1 X101.778 Y143.761 E79.74211
G1 X101.455 Y143.119 E79.81002
G1 X101.235 Y142.541 E79.86847
G1 X100.943 Y141.647 E79.95734
G1 X100.758 Y140.952 E80.02531
G1 X100.658 Y140.311 E80.08661
G1 X100.56 Y139.375 E80.17555
G1 X100.525 Y138.701 E80.23933
G1 X100.525 Y84.301 E85.38013
G1 X100.56 Y83.629 E85.44372
G1 X100.658 Y82.69 E85.53293
G1 X100.772 Y81.98 E85.60089
G1 X100.943 Y81.352 E85.6624
G1 X101.235 Y80.458 E85.75127
G1 X101.496 Y79.787 E85.81931
G1 X101.78 Y79.235 E85.87797
G1 X102.248 Y78.423 E85.96654
G1 X102.641 Y77.82 E86.03456
G0 F4320 X102.935 Y78.012
G1 F1800 X103.308 Y77.555 E86.0903
G1 X103.938 Y76.856 E86.17923
G1 X104.436 Y76.364 E86.24538
G1 X104.888 Y76.002 E86.30011
G1 X105.652 Y75.447 E86.38934
G1 X106.241 Y75.068 E86.45553
G1 X106.759 Y74.807 E86.51034
G1 X107.614 Y74.426 E86.5988
G1 X108.268 Y74.179 E86.66486
G1 X108.837 Y74.029 E86.72047
G1 X109.762 Y73.833 E86.80983
G1 X110.454 Y73.727 E86.87598
G1 X111.032 Y73.7 E86.93066
G1 X111.968 Y73.7 E87.01912
G1 X112.667 Y73.74 E87.08528
G1 X113.238 Y73.833 E87.13995
G1 X114.163 Y74.029 E87.2293
G1 X114.838 Y74.213 E87.29542
G1 X115.386 Y74.426 E87.35098
G1 X116.241 Y74.807 E87.43943
G1 X116.863 Y75.128 E87.50558
G1 X117.348 Y75.447 E87.56044
G1 X118.112 Y76.002 E87.64967
G1 X118.654 Y76.444 E87.71577
G1 X119.062 Y76.856 E87.77056
G1 X119.692 Y77.555 E87.85949
G1 X120.13 Y78.101 E87.92563
G1 X120.449 Y78.597 E87.98136
G1 X120.917 Y79.409 E88.06993
G1 X121.231 Y80.035 E88.13611
G1 X121.432 Y80.566 E88.18976
G1 X121.724 Y81.46 E88.27864
G1 X121.903 Y82.137 E88.34481
G1 X121.994 Y82.725 E88.40104
G1 X122.092 Y83.662 E88.49007
G1 X122.125 Y84.299 E88.55035
G1 X122.125 Y138.699 E93.69115
G1 X122.092 Y139.335 E93.75133
G1 X121.994 Y140.273 E93.84045
G1 X121.882 Y140.964 E93.90661
G1 X121.724 Y141.539 E93.96296
G1 X121.432 Y142.433 E94.05183
G1 X121.177 Y143.084 E94.1179
G1 X120.918 Y143.587 E94.17137
G1 X120.45 Y144.4 E94.26002
G1 X120.067 Y144.985 E94.32609
G1 X119.692 Y145.445 E94.38218
G1 X119.062 Y146.144 E94.4711
G1 X118.564 Y146.636 E94.53726
G1 X118.111 Y146.999 E94.59212
G1 X117.348 Y147.553 E94.68122
G1 X116.759 Y147.931 E94.74736
G1 X116.245 Y148.19 E94.80175
G1 X115.389 Y148.572 E94.89033
G1 X114.735 Y148.821 E94.95646
G1 X114.163 Y148.971 E95.01234
G1 X113.238 Y149.167 E95.1017
G1 X112.546 Y149.273 E95.16785
G1 X111.968 Y149.3 E95.22253
G1 X111.032 Y149.3 E95.31099
G1 X110.333 Y149.26 E95.37715
