;FLAVOR:UltiGCode
;TIME:8351
;MATERIAL:8399
;MATERIAL2:0
;NOZZLE_DIAMETER:0.4
;Generated with Cura_SteamEngine master
M82 ;absolute extrusion mode

G92 E0
G10
;LAYER_COUNT:59
;LAYER:0
M107
G0 F4320 X77.956 Y71.116 Z0.27
;TYPE:SKIRT
G11
G1 F1800 X78.663 Y70.413 E0.09422
G1 X79.253 Y69.882 E0.16923
G1 X80.046 Y69.317 E0.26124
G1 X80.895 Y68.787 E0.35582
G1 X81.588 Y68.401 E0.43079
G1 X82.476 Y68.03 E0.52173
G1 X83.427 Y67.699 E0.61689
G1 X84.189 Y67.476 E0.69192
G1 X85.141 Y67.31 E0.78324
G1 X86.134 Y67.199 E0.87766
G1 X87.009 Y67.15 E0.96048
G1 X136.001 Y67.151 E5.59022
G1 X136.897 Y67.202 E5.67503
G1 X137.901 Y67.317 E5.77053
G1 X138.684 Y67.447 E5.84554
G1 X139.629 Y67.716 E5.93839
G1 X140.577 Y68.051 E6.0334
G1 X141.311 Y68.353 E6.10841
G1 X142.147 Y68.811 E6.19849
G1 X142.994 Y69.344 E6.29306
G1 X143.644 Y69.8 E6.36809
G1 X144.384 Y70.456 E6.46154
G1 X145.087 Y71.163 E6.55576
G1 X145.618 Y71.753 E6.63077
G1 X146.182 Y72.544 E6.72258
G1 X146.711 Y73.391 E6.81695
G1 X147.097 Y74.085 E6.89199
G1 X147.468 Y74.97 E6.98268
G1 X147.801 Y75.925 E7.07825
G1 X148.024 Y76.687 E7.15328
G1 X148.192 Y77.647 E7.24538
G1 X148.302 Y78.636 E7.33942
G1 X148.35 Y79.507 E7.42185
G1 X148.349 Y137.499 E12.9021
G1 X148.289 Y138.472 E12.99422
G1 X148.153 Y139.564 E13.09821
G1 X148.015 Y140.346 E13.17325
G1 X147.685 Y141.426 E13.27997
G1 X147.291 Y142.447 E13.38339
G1 X146.968 Y143.172 E13.45839
G1 X146.383 Y144.145 E13.56568
G1 X145.755 Y145.037 E13.66877
G1 X145.266 Y145.662 E13.74376
G1 X144.461 Y146.466 E13.85128
G1 X143.637 Y147.177 E13.95413
G1 X143.011 Y147.665 E14.02913
G1 X142.06 Y148.235 E14.13391
G1 X141.092 Y148.727 E14.23652
G1 X140.202 Y149.113 E14.3282
G1 X123.205 Y155.26 E16.03623
G1 X122.446 Y155.492 E16.11123
G1 X121.445 Y155.675 E16.20739
G1 X120.414 Y155.796 E16.30549
G1 X119.496 Y155.85 E16.39239
G1 X91.5 Y155.849 E19.03801
G1 X90.582 Y155.795 E19.12491
G1 X89.543 Y155.673 E19.22377
G1 X88.76 Y155.541 E19.29881
G1 X87.754 Y155.247 E19.39786
G1 X86.784 Y154.892 E19.49547
G1 X86.054 Y154.582 E19.57041
G1 X85.162 Y154.075 E19.66737
G1 X84.299 Y153.507 E19.76501
G1 X83.659 Y153.038 E19.83999
G1 X82.917 Y152.351 E19.93554
G1 X82.204 Y151.6 E20.0334
G1 X81.615 Y150.903 E20.11964
G1 X77.117 Y144.905 E20.82813
G1 X76.637 Y144.186 E20.90982
G1 X76.149 Y143.36 E21.00048
G1 X75.78 Y142.657 E21.07551
G1 X75.455 Y141.834 E21.15913
G1 X75.153 Y140.924 E21.24974
G1 X74.941 Y140.16 E21.32466
G1 X74.797 Y139.285 E21.40846
G1 X74.695 Y138.335 E21.49875
G1 X74.65 Y137.494 E21.57834
G1 X74.651 Y79.499 E27.05887
G1 X74.701 Y78.609 E27.14311
G1 X74.815 Y77.607 E27.23841
G1 X74.945 Y76.824 E27.31341
G1 X75.216 Y75.871 E27.40704
G1 X75.552 Y74.921 E27.50227
G1 X75.854 Y74.187 E27.57727
G1 X76.311 Y73.353 E27.66714
G1 X76.844 Y72.506 E27.76171
G1 X77.3 Y71.856 E27.83674
G1 X77.956 Y71.116 E27.9302
G0 F4320 X78.203 Y71.364
G1 F1800 X78.91 Y70.661 E28.02441
G1 X79.488 Y70.143 E28.09776
G1 X80.231 Y69.614 E28.18395
G1 X81.08 Y69.084 E28.27853
G1 X81.758 Y68.707 E28.35184
G1 X82.591 Y68.36 E28.43712
G1 X83.542 Y68.029 E28.53228
G1 X84.287 Y67.812 E28.6056
G1 X85.18 Y67.658 E28.69124
G1 X86.173 Y67.547 E28.78566
G1 X87.009 Y67.5 E28.86479
G1 X136.001 Y67.501 E33.49453
G1 X136.857 Y67.55 E33.57556
G1 X137.861 Y67.665 E33.67105
G1 X138.626 Y67.793 E33.74435
G1 X139.512 Y68.046 E33.83143
G1 X140.46 Y68.381 E33.92644
G1 X141.177 Y68.677 E33.99974
G1 X141.961 Y69.107 E34.08424
G1 X142.808 Y69.64 E34.17881
G1 X143.442 Y70.086 E34.25207
G1 X144.136 Y70.703 E34.33982
G1 X144.839 Y71.41 E34.43404
G1 X145.357 Y71.988 E34.50739
G1 X145.885 Y72.73 E34.59345
G1 X146.414 Y73.577 E34.68782
G1 X146.791 Y74.255 E34.76113
G1 X147.137 Y75.085 E34.8461
G1 X147.47 Y76.04 E34.94168
G1 X147.688 Y76.785 E35.01503
G1 X147.844 Y77.686 E35.10145
G1 X147.954 Y78.675 E35.19548
G1 X148 Y79.507 E35.27423
G1 X147.999 Y137.499 E40.75447
G1 X147.941 Y138.429 E40.84253
G1 X147.805 Y139.521 E40.94652
G1 X147.67 Y140.285 E41.01983
G1 X147.358 Y141.3 E41.12018
G1 X146.964 Y142.321 E41.2236
G1 X146.648 Y143.029 E41.29687
G1 X146.097 Y143.944 E41.3978
G1 X145.469 Y144.836 E41.50089
G1 X144.99 Y145.446 E41.57419
G1 X144.232 Y146.201 E41.67529
G1 X143.408 Y146.912 E41.77814
G1 X142.795 Y147.388 E41.85148
G1 X141.902 Y147.923 E41.94985
G1 X140.934 Y148.415 E42.05247
G1 X140.083 Y148.783 E42.14008
G1 X123.086 Y154.93 E43.84811
G1 X122.344 Y155.156 E43.92141
G1 X121.404 Y155.328 E44.01172
G1 X120.373 Y155.449 E44.10981
G1 X119.496 Y155.5 E44.19283
G1 X91.5 Y155.499 E46.83845
G1 X90.622 Y155.448 E46.92156
G1 X89.583 Y155.326 E47.02042
G1 X88.819 Y155.196 E47.09366
G1 X87.875 Y154.919 E47.18663
G1 X86.905 Y154.564 E47.28424
G1 X86.191 Y154.26 E47.35757
G1 X85.354 Y153.783 E47.44861
G1 X84.491 Y153.215 E47.54625
G1 X83.866 Y152.755 E47.61958
G1 X83.171 Y152.11 E47.70918
G1 X82.458 Y151.359 E47.80704
G1 X81.895 Y150.693 E47.88946
G1 X77.397 Y144.695 E48.59794
G1 X76.938 Y144.008 E48.67602
G1 X76.45 Y143.182 E48.76668
G1 X76.091 Y142.494 E48.84002
G1 X75.787 Y141.724 E48.91825
G1 X75.485 Y140.814 E49.00885
G1 X75.279 Y140.066 E49.08217
G1 X75.145 Y139.247 E49.1606
G1 X75.043 Y138.297 E49.25089
G1 X75 Y137.494 E49.32688
G1 X75.001 Y79.499 E54.80741
G1 X75.049 Y78.648 E54.88795
G1 X75.163 Y77.646 E54.98325
G1 X75.291 Y76.881 E55.05655
G1 X75.546 Y75.988 E55.14431
G1 X75.882 Y75.038 E55.23954
G1 X76.178 Y74.321 E55.31284
G1 X76.607 Y73.539 E55.39713
G1 X77.14 Y72.692 E55.4917
G1 X77.586 Y72.058 E55.56495
G1 X78.203 Y71.364 E55.65271
G0 F4320 X78.45 Y71.612
G1 F1800 X79.157 Y70.909 E55.74693
G1 X79.721 Y70.404 E55.81847
G1 X80.416 Y69.911 E55.89899
G1 X81.265 Y69.381 E55.99357
G1 X81.928 Y69.014 E56.06518
G1 X82.706 Y68.691 E56.14479
G1 X83.657 Y68.36 E56.23995
G1 X84.385 Y68.149 E56.31157
G1 X85.219 Y68.005 E56.39155
G1 X86.212 Y67.894 E56.48597
G1 X87.009 Y67.85 E56.56141
G1 X136.001 Y67.851 E61.19115
G1 X136.817 Y67.898 E61.26839
G1 X137.821 Y68.013 E61.36389
G1 X138.568 Y68.138 E61.43546
G1 X139.396 Y68.376 E61.51688
G1 X140.344 Y68.711 E61.61189
G1 X141.043 Y69.001 E61.68341
G1 X141.774 Y69.403 E61.76224
G1 X142.621 Y69.936 E61.85681
G1 X143.24 Y70.373 E61.92842
G1 X143.888 Y70.95 E62.01041
G1 X144.591 Y71.657 E62.10463
G1 X145.096 Y72.221 E62.17617
G1 X145.589 Y72.915 E62.25662
G1 X146.118 Y73.762 E62.35099
G1 X146.484 Y74.425 E62.42255
G1 X146.807 Y75.201 E62.50198
G1 X147.14 Y76.156 E62.59756
G1 X147.351 Y76.883 E62.6691
G1 X147.496 Y77.725 E62.74984
G1 X147.606 Y78.714 E62.84387
G1 X147.65 Y79.507 E62.91893
G1 X147.649 Y137.499 E68.39917
G1 X147.594 Y138.386 E68.48315
G1 X147.458 Y139.478 E68.58714
G1 X147.325 Y140.223 E68.65866
G1 X147.032 Y141.174 E68.7527
G1 X146.638 Y142.195 E68.85612
G1 X146.328 Y142.886 E68.92769
G1 X145.811 Y143.742 E69.02219
G1 X145.183 Y144.634 E69.12528
G1 X144.715 Y145.23 E69.19689
G1 X144.003 Y145.936 E69.29164
G1 X143.179 Y146.647 E69.39449
G1 X142.581 Y147.111 E69.46602
G1 X141.743 Y147.611 E69.55823
G1 X140.775 Y148.103 E69.66085
G1 X139.964 Y148.454 E69.74436
G1 X122.967 Y154.601 E71.45239
G1 X122.242 Y154.821 E71.52399
G1 X121.363 Y154.98 E71.6084
G1 X120.332 Y155.101 E71.7065
G1 X119.496 Y155.15 E71.78563
G1 X91.5 Y155.149 E74.43126
G1 X90.663 Y155.1 E74.51049
G1 X89.624 Y154.978 E74.60935
G1 X88.878 Y154.85 E74.68088
G1 X87.995 Y154.59 E74.76786
G1 X87.025 Y154.235 E74.86547
G1 X86.329 Y153.937 E74.93702
G1 X85.546 Y153.49 E75.02222
G1 X84.683 Y152.922 E75.11985
G1 X84.074 Y152.473 E75.19135
G1 X83.425 Y151.869 E75.27514
G1 X82.712 Y151.118 E75.373
G1 X82.175 Y150.483 E75.45158
G1 X77.677 Y144.485 E76.16007
G1 X77.24 Y143.83 E76.23448
G1 X76.752 Y143.004 E76.32514
G1 X76.401 Y142.332 E76.39679
G1 X76.119 Y141.614 E76.46968
G1 X75.817 Y140.704 E76.56029
G1 X75.617 Y139.974 E76.63182
G1 X75.493 Y139.21 E76.70496
G1 X75.391 Y138.26 E76.79525
G1 X75.35 Y137.494 E76.86774
G1 X75.351 Y79.499 E82.34827
G1 X75.397 Y78.688 E82.42503
G1 X75.511 Y77.686 E82.52033
G1 X75.636 Y76.939 E82.5919
G1 X75.876 Y76.105 E82.67391
G1 X76.212 Y75.155 E82.76914
G1 X76.501 Y74.455 E82.84071
G1 X76.903 Y73.726 E82.91938
G1 X77.436 Y72.879 E83.01395
G1 X77.873 Y72.26 E83.08555
G1 X78.45 Y71.612 E83.16754
G0 F4320 X78.697 Y71.86
G1 F1800 X79.404 Y71.157 E83.26176
G1 X79.955 Y70.666 E83.33151
G1 X80.602 Y70.207 E83.40647
G1 X81.451 Y69.677 E83.50105
G1 X82.098 Y69.321 E83.57084
G1 X82.822 Y69.021 E83.6449
G1 X83.773 Y68.69 E83.74005
G1 X84.482 Y68.486 E83.80977
G1 X85.258 Y68.353 E83.88417
G1 X86.251 Y68.242 E83.9786
G1 X87.009 Y68.2 E84.05034
G1 X136.001 Y68.201 E88.68008
G1 X136.778 Y68.245 E88.75363
G1 X137.782 Y68.36 E88.84912
G1 X138.51 Y68.484 E88.91891
G1 X139.279 Y68.706 E88.99455
G1 X140.227 Y69.041 E89.08956
G1 X140.909 Y69.324 E89.15934
G1 X141.588 Y69.7 E89.23269
G1 X142.435 Y70.233 E89.32726
G1 X143.038 Y70.659 E89.39703
G1 X143.64 Y71.197 E89.47333
G1 X144.343 Y71.904 E89.56754
G1 X144.834 Y72.455 E89.63729
G1 X145.292 Y73.101 E89.71212
G1 X145.821 Y73.948 E89.80649
G1 X146.178 Y74.594 E89.87624
G1 X146.476 Y75.316 E89.95005
G1 X146.809 Y76.271 E90.04563
G1 X147.015 Y76.98 E90.1154
G1 X147.148 Y77.764 E90.19055
G1 X147.258 Y78.753 E90.28458
G1 X147.3 Y79.507 E90.35595
G1 X147.299 Y137.499 E95.83619
G1 X147.247 Y138.342 E95.91601
G1 X147.111 Y139.434 E96.02
G1 X146.98 Y140.161 E96.0898
G1 X146.705 Y141.048 E96.17756
G1 X146.311 Y142.069 E96.28098
G1 X146.009 Y142.743 E96.35078
G1 X145.525 Y143.541 E96.43897
G1 X144.897 Y144.433 E96.54206
G1 X144.439 Y145.013 E96.6119
G1 X143.775 Y145.671 E96.70024
G1 X142.951 Y146.382 E96.80309
G1 X142.366 Y146.834 E96.87295
G1 X141.584 Y147.299 E96.95893
G1 X140.616 Y147.791 E97.06154
G1 X139.845 Y148.125 E97.14094
G1 X122.848 Y154.272 E98.84897
G1 X122.141 Y154.485 E98.91875
G1 X121.323 Y154.632 E98.99729
G1 X120.292 Y154.753 E99.09539
G1 X119.496 Y154.8 E99.17074
G1 X91.5 Y154.799 E101.81636
G1 X90.704 Y154.752 E101.89172
G1 X89.665 Y154.63 E101.99058
G1 X88.937 Y154.505 E102.06038
G1 X88.115 Y154.261 E102.14141
G1 X87.145 Y153.906 E102.23902
G1 X86.466 Y153.615 E102.30883
G1 X85.739 Y153.198 E102.38803
G1 X84.876 Y152.63 E102.48566
G1 X84.282 Y152.191 E102.55546
G1 X83.678 Y151.628 E102.63349
G1 X82.965 Y150.877 E102.73135
G1 X82.455 Y150.273 E102.80605
G1 X77.957 Y144.275 E103.51454
G1 X77.541 Y143.652 E103.58533
G1 X77.053 Y142.826 E103.67599
G1 X76.712 Y142.17 E103.74586
G1 X76.451 Y141.504 E103.81346
G1 X76.149 Y140.594 E103.90406
G1 X75.955 Y139.881 E103.97389
G1 X75.841 Y139.173 E104.04166
G1 X75.739 Y138.223 E104.13195
G1 X75.7 Y137.494 E104.20094
G1 X75.701 Y79.499 E109.68147
G1 X75.745 Y78.727 E109.75454
G1 X75.859 Y77.725 E109.84984
G1 X75.982 Y76.997 E109.91961
G1 X76.206 Y76.221 E109.99594
G1 X76.542 Y75.271 E110.09116
G1 X76.825 Y74.589 E110.16094
G1 X77.2 Y73.912 E110.23408
G1 X77.733 Y73.065 E110.32865
G1 X78.159 Y72.462 E110.39842
G1 X78.697 Y71.86 E110.47471
G0 F4320 X78.943 Y72.109
G1 F1800 X79.65 Y71.406 E110.56893
G1 X80.188 Y70.927 E110.637
G1 X80.787 Y70.504 E110.7063
G1 X81.636 Y69.974 E110.80088
G1 X82.267 Y69.628 E110.86889
G1 X82.937 Y69.352 E110.93736
G1 X83.888 Y69.021 E111.03252
G1 X84.579 Y68.822 E111.10047
G1 X85.297 Y68.701 E111.16928
G1 X86.29 Y68.59 E111.2637
G1 X87.009 Y68.55 E111.33175
G1 X136.001 Y68.551 E115.9615
G1 X136.738 Y68.593 E116.03126
G1 X137.742 Y68.708 E116.12676
G1 X138.451 Y68.83 E116.19474
G1 X139.162 Y69.036 E116.26469
G1 X140.11 Y69.371 E116.35971
G1 X140.774 Y69.648 E116.4277
G1 X141.402 Y69.996 E116.49555
G1 X142.249 Y70.529 E116.59012
G1 X142.835 Y70.945 E116.65803
G1 X143.391 Y71.443 E116.72857
G1 X144.094 Y72.15 E116.82278
G1 X144.573 Y72.688 E116.89086
G1 X144.995 Y73.286 E116.96002
G1 X145.524 Y74.133 E117.05439
G1 X145.871 Y74.763 E117.12236
G1 X146.146 Y75.431 E117.19063
G1 X146.479 Y76.386 E117.2862
G1 X146.678 Y77.078 E117.35425
G1 X146.8 Y77.802 E117.42363
G1 X146.91 Y78.791 E117.51767
G1 X146.95 Y79.507 E117.58543
G1 X146.949 Y137.499 E123.06568
G1 X146.899 Y138.299 E123.14143
G1 X146.763 Y139.391 E123.24542
G1 X146.635 Y140.099 E123.31341
G1 X146.379 Y140.922 E123.39486
G1 X145.985 Y141.943 E123.49828
G1 X145.689 Y142.599 E123.56629
G1 X145.238 Y143.339 E123.64818
G1 X144.61 Y144.231 E123.75127
G1 X144.164 Y144.796 E123.81929
G1 X143.546 Y145.406 E123.90135
G1 X142.722 Y146.117 E124.0042
G1 X142.152 Y146.556 E124.07219
G1 X141.426 Y146.987 E124.15197
G1 X140.458 Y147.479 E124.25459
G1 X139.726 Y147.796 E124.32997
G1 X122.729 Y153.943 E126.038
G1 X122.04 Y154.15 E126.10599
G1 X121.282 Y154.285 E126.17874
G1 X120.251 Y154.406 E126.27684
G1 X119.496 Y154.45 E126.34831
G1 X91.5 Y154.449 E128.99393
G1 X90.745 Y154.405 E129.0654
G1 X89.706 Y154.283 E129.16426
G1 X88.997 Y154.159 E129.23228
G1 X88.236 Y153.933 E129.3073
G1 X87.266 Y153.578 E129.40491
G1 X86.605 Y153.293 E129.47293
G1 X85.931 Y152.906 E129.54638
G1 X85.068 Y152.338 E129.64401
G1 X84.49 Y151.909 E129.71203
G1 X83.932 Y151.387 E129.78424
G1 X83.219 Y150.636 E129.8821
G1 X82.735 Y150.063 E129.95298
G1 X78.237 Y144.065 E130.66147
G1 X77.842 Y143.474 E130.72864
G1 X77.354 Y142.648 E130.8193
G1 X77.023 Y142.009 E130.88731
G1 X76.784 Y141.393 E130.94975
G1 X76.482 Y140.483 E131.04035
G1 X76.293 Y139.789 E131.10833
G1 X76.189 Y139.135 E131.17091
G1 X76.087 Y138.185 E131.2612
G1 X76.05 Y137.494 E131.32659
G1 X76.051 Y79.499 E136.80712
G1 X76.093 Y78.767 E136.87641
G1 X76.207 Y77.765 E136.97171
G1 X76.327 Y77.056 E137.03966
G1 X76.536 Y76.338 E137.11033
G1 X76.872 Y75.388 E137.20555
G1 X77.149 Y74.724 E137.27354
G1 X77.496 Y74.098 E137.34118
G1 X78.029 Y73.251 E137.43575
G1 X78.445 Y72.665 E137.50366
G1 X78.943 Y72.109 E137.5742
G0 F4320 X79.19 Y72.357
G1 F1800 X79.897 Y71.654 E137.66842
G1 X80.421 Y71.189 E137.73462
G1 X80.973 Y70.801 E137.79838
G1 X81.822 Y70.271 E137.89296
G1 X82.435 Y69.935 E137.95902
G1 X83.052 Y69.682 E138.02204
G1 X84.003 Y69.351 E138.1172
G1 X84.676 Y69.159 E138.18333
G1 X85.336 Y69.049 E138.24656
G1 X86.329 Y68.938 E138.34099
G1 X87.009 Y68.9 E138.40535
G1 X136.001 Y68.901 E143.03509
G1 X136.698 Y68.941 E143.10106
G1 X137.702 Y69.056 E143.19656
G1 X138.391 Y69.175 E143.26264
G1 X139.046 Y69.366 E143.32711
G1 X139.994 Y69.701 E143.42213
G1 X140.639 Y69.971 E143.4882
G1 X141.215 Y70.292 E143.55052
G1 X142.062 Y70.825 E143.64509
G1 X142.632 Y71.231 E143.71122
G1 X143.143 Y71.69 E143.77613
G1 X143.846 Y72.397 E143.87035
G1 X144.311 Y72.921 E143.93655
G1 X144.698 Y73.471 E144.00011
G1 X145.227 Y74.318 E144.09448
G1 X145.563 Y74.932 E144.16062
G1 X145.815 Y75.546 E144.22334
G1 X146.148 Y76.501 E144.31892
G1 X146.341 Y77.174 E144.38508
G1 X146.452 Y77.841 E144.44898
G1 X146.562 Y78.83 E144.54301
G1 X146.6 Y79.507 E144.60709
G1 X146.599 Y137.499 E150.08733
G1 X146.552 Y138.256 E150.15901
G1 X146.416 Y139.348 E150.263
G1 X146.29 Y140.036 E150.3291
G1 X146.052 Y140.796 E150.40436
G1 X145.658 Y141.817 E150.50778
G1 X145.369 Y142.454 E150.57388
G1 X144.952 Y143.138 E150.64958
G1 X144.324 Y144.03 E150.75267
G1 X143.889 Y144.578 E150.81879
G1 X143.317 Y145.141 E150.89463
G1 X142.493 Y145.852 E150.99748
G1 X141.938 Y146.278 E151.0636
G1 X141.267 Y146.675 E151.13727
G1 X140.299 Y147.167 E151.23989
G1 X139.607 Y147.467 E151.31116
G1 X122.61 Y153.614 E153.01919
G1 X121.94 Y153.814 E153.08527
G1 X121.241 Y153.937 E153.15234
G1 X120.21 Y154.058 E153.25044
G1 X119.496 Y154.1 E153.31803
G1 X91.5 Y154.099 E155.96365
G1 X90.786 Y154.057 E156.03124
G1 X89.747 Y153.935 E156.1301
G1 X89.058 Y153.814 E156.19621
G1 X88.356 Y153.604 E156.26545
G1 X87.386 Y153.249 E156.36306
G1 X86.744 Y152.971 E156.42917
G1 X86.124 Y152.613 E156.49683
G1 X85.261 Y152.045 E156.59446
G1 X84.699 Y151.628 E156.66059
G1 X84.186 Y151.146 E156.72711
G1 X83.473 Y150.395 E156.82497
G1 X83.015 Y149.853 E156.89203
G1 X78.517 Y143.855 E157.60052
G1 X78.144 Y143.296 E157.66402
G1 X77.656 Y142.47 E157.75468
G1 X77.335 Y141.848 E157.82083
G1 X77.116 Y141.283 E157.87809
G1 X76.814 Y140.373 E157.9687
G1 X76.632 Y139.698 E158.03476
G1 X76.537 Y139.098 E158.09217
G1 X76.435 Y138.148 E158.18246
G1 X76.4 Y137.494 E158.24435
G1 X76.401 Y79.499 E163.72488
G1 X76.44 Y78.807 E163.79038
G1 X76.554 Y77.805 E163.88568
