;FLAVOR:UltiGCode
;TIME:9322
;MATERIAL:8945
;MATERIAL2:0
;NOZZLE_DIAMETER:0.4
;Generated with Cura_SteamEngine master
M82 ;absolute extrusion mode

G92 E0
G10
;LAYER_COUNT:39
;LAYER:0
M107
G0 F4800 X77.885 Y74.163 Z0.27
;TYPE:SKIRT
G11
G1 F1800 X78.663 Y73.385 E0.10397
G1 X79.251 Y72.852 E0.17897
G1 X80.178 Y72.201 E0.28602
G1 X81.116 Y71.638 E0.3894
G1 X81.816 Y71.264 E0.4644
G1 X82.86 Y70.861 E0.57015
G1 X83.91 Y70.539 E0.67394
G1 X84.679 Y70.345 E0.74888
G1 X85.809 Y70.204 E0.8565
G1 X86.902 Y70.147 E0.95993
G1 X87.695 Y70.145 E1.03487
G1 X88.814 Y70.281 E1.14139
G1 X89.895 Y70.491 E1.24545
G1 X90.665 Y70.681 E1.3204
G1 X91.723 Y71.085 E1.42742
G1 X92.713 Y71.547 E1.53066
G1 X93.414 Y71.918 E1.60561
G1 X94.069 Y72.375 E1.68109
G1 X128.918 Y72.375 E4.97432
G1 X129.299 Y72.097 E5.01889
G1 X130.287 Y71.547 E5.12575
G1 X131.277 Y71.085 E5.22899
G1 X132.012 Y70.786 E5.30397
G1 X133.105 Y70.491 E5.41096
G1 X134.186 Y70.281 E5.51502
G1 X134.972 Y70.169 E5.59005
G1 X136.098 Y70.147 E5.69648
G1 X137.191 Y70.204 E5.7999
G1 X137.98 Y70.285 E5.87486
G1 X139.09 Y70.539 E5.98246
G1 X140.14 Y70.861 E6.08625
G1 X140.886 Y71.132 E6.16125
G1 X141.884 Y71.638 E6.26699
G1 X142.822 Y72.201 E6.37038
G1 X143.481 Y72.643 E6.44536
G1 X144.337 Y73.385 E6.55241
G1 X145.115 Y74.163 E6.65639
G1 X145.648 Y74.751 E6.73139
G1 X146.297 Y75.675 E6.83809
G1 X146.86 Y76.612 E6.94139
G1 X147.234 Y77.312 E7.01639
G1 X147.64 Y78.361 E7.12269
G1 X147.962 Y79.412 E7.22656
G1 X148.155 Y80.182 E7.30158
G1 X148.296 Y81.309 E7.40891
G1 X148.353 Y82.401 E7.51225
G1 X148.355 Y83.194 E7.58718
G1 X148.22 Y84.311 E7.69351
G1 X148.01 Y85.393 E7.79767
G1 X147.82 Y86.164 E7.87271
G1 X147.415 Y87.223 E7.97985
G1 X146.953 Y88.213 E8.08309
G1 X146.582 Y88.914 E8.15804
G1 X146.125 Y89.569 E8.23351
G1 X146.125 Y133.418 E12.37724
G1 X146.403 Y133.799 E12.42181
G1 X146.953 Y134.787 E12.52867
G1 X147.415 Y135.777 E12.63191
G1 X147.714 Y136.512 E12.7069
G1 X148.01 Y137.607 E12.81409
G1 X148.22 Y138.689 E12.91825
G1 X148.331 Y139.474 E12.99317
G1 X148.353 Y140.599 E13.0995
G1 X148.296 Y141.691 E13.20283
G1 X148.215 Y142.481 E13.27788
G1 X147.961 Y143.59 E13.3854
G1 X147.639 Y144.64 E13.48918
G1 X147.368 Y145.386 E13.56419
G1 X146.862 Y146.384 E13.66993
G1 X146.299 Y147.322 E13.77331
G1 X145.857 Y147.981 E13.84829
G1 X145.115 Y148.837 E13.95535
G1 X144.337 Y149.615 E14.05932
G1 X143.749 Y150.148 E14.13432
G1 X142.822 Y150.799 E14.24136
G1 X141.884 Y151.362 E14.34474
G1 X141.184 Y151.736 E14.41974
G1 X140.14 Y152.139 E14.5255
G1 X139.09 Y152.461 E14.62928
G1 X138.321 Y152.655 E14.70423
G1 X137.191 Y152.796 E14.81184
G1 X136.098 Y152.853 E14.91527
G1 X135.305 Y152.855 E14.99021
G1 X134.186 Y152.719 E15.09674
G1 X133.105 Y152.509 E15.2008
G1 X132.335 Y152.319 E15.27575
G1 X131.277 Y151.915 E15.38277
G1 X130.287 Y151.453 E15.48601
G1 X129.586 Y151.082 E15.56096
G1 X128.931 Y150.625 E15.63643
G1 X94.082 Y150.625 E18.92966
G1 X93.701 Y150.903 E18.97423
G1 X92.713 Y151.453 E19.08109
G1 X91.723 Y151.915 E19.18433
G1 X90.988 Y152.214 E19.25932
G1 X89.895 Y152.509 E19.3663
G1 X88.814 Y152.719 E19.47037
G1 X88.028 Y152.831 E19.54539
G1 X86.902 Y152.853 E19.65182
G1 X85.809 Y152.796 E19.75525
G1 X85.02 Y152.715 E19.8302
G1 X83.91 Y152.461 E19.93781
G1 X82.86 Y152.139 E20.0416
G1 X82.114 Y151.868 E20.1166
G1 X81.116 Y151.362 E20.22234
G1 X80.178 Y150.799 E20.32572
G1 X79.519 Y150.357 E20.40071
G1 X78.663 Y149.615 E20.50776
G1 X77.885 Y148.837 E20.61173
G1 X77.352 Y148.249 E20.68673
G1 X76.701 Y147.322 E20.79378
G1 X76.138 Y146.384 E20.89716
G1 X75.764 Y145.684 E20.97216
G1 X75.361 Y144.64 E21.07791
G1 X75.039 Y143.59 E21.1817
G1 X74.845 Y142.821 E21.25665
G1 X74.704 Y141.691 E21.36426
G1 X74.647 Y140.599 E21.46759
G1 X74.645 Y139.806 E21.54253
G1 X74.78 Y138.689 E21.64886
G1 X74.99 Y137.607 E21.75301
G1 X75.18 Y136.836 E21.82805
G1 X75.585 Y135.777 E21.9352
G1 X76.047 Y134.787 E22.03844
G1 X76.418 Y134.086 E22.11339
G1 X76.875 Y133.431 E22.18886
G1 X76.875 Y89.582 E26.33259
G1 X76.597 Y89.201 E26.37716
G1 X76.047 Y88.213 E26.48402
G1 X75.585 Y87.223 E26.58726
G1 X75.286 Y86.488 E26.66225
G1 X74.99 Y85.393 E26.76944
G1 X74.78 Y84.311 E26.87359
G1 X74.669 Y83.526 E26.94851
G1 X74.647 Y82.401 E27.05485
G1 X74.704 Y81.309 E27.15818
G1 X74.785 Y80.519 E27.23323
G1 X75.038 Y79.412 E27.34054
G1 X75.36 Y78.361 E27.44441
G1 X75.631 Y77.615 E27.51942
G1 X76.14 Y76.612 E27.62571
G1 X76.703 Y75.675 E27.72901
G1 X77.145 Y75.016 E27.80399
G1 X77.885 Y74.163 E27.91071
G0 F4800 X78.132 Y74.41
G1 F1800 X78.91 Y73.632 E28.01468
G1 X79.486 Y73.113 E28.08795
G1 X80.358 Y72.501 E28.18863
G1 X81.296 Y71.938 E28.29201
G1 X81.981 Y71.574 E28.36531
G1 X82.963 Y71.196 E28.46475
G1 X84.013 Y70.874 E28.56853
G1 X84.765 Y70.685 E28.64181
G1 X85.827 Y70.553 E28.74294
G1 X86.92 Y70.496 E28.84637
G1 X87.696 Y70.496 E28.9197
G1 X88.747 Y70.624 E29.01975
G1 X89.828 Y70.834 E29.12382
G1 X90.581 Y71.021 E29.19714
G1 X91.575 Y71.402 E29.29774
G1 X92.565 Y71.864 E29.40098
G1 X93.25 Y72.228 E29.47428
G1 X93.961 Y72.725 E29.55626
G1 X129.033 Y72.725 E32.87056
G1 X129.506 Y72.38 E32.92589
G1 X130.435 Y71.864 E33.02631
G1 X131.425 Y71.402 E33.12955
G1 X132.144 Y71.111 E33.20285
G1 X133.172 Y70.834 E33.30346
G1 X134.253 Y70.624 E33.40753
G1 X135.021 Y70.516 E33.48082
G1 X136.08 Y70.496 E33.58091
G1 X137.173 Y70.553 E33.68434
G1 X137.944 Y70.633 E33.75759
G1 X138.987 Y70.874 E33.85875
G1 X140.037 Y71.196 E33.96254
G1 X140.766 Y71.461 E34.03584
G1 X141.704 Y71.938 E34.13528
G1 X142.642 Y72.501 E34.23866
G1 X143.285 Y72.934 E34.31192
G1 X144.09 Y73.632 E34.41261
G1 X144.868 Y74.41 E34.51658
G1 X145.387 Y74.986 E34.58985
G1 X145.997 Y75.855 E34.69018
G1 X146.56 Y76.792 E34.79348
G1 X146.925 Y77.477 E34.86683
G1 X147.305 Y78.464 E34.96678
G1 X147.627 Y79.515 E35.07065
G1 X147.816 Y80.267 E35.14393
G1 X147.947 Y81.327 E35.24486
G1 X148.004 Y82.419 E35.34819
G1 X148.004 Y83.194 E35.42143
G1 X147.876 Y84.245 E35.52148
G1 X147.666 Y85.327 E35.62564
G1 X147.479 Y86.08 E35.69896
G1 X147.098 Y87.075 E35.79965
G1 X146.636 Y88.065 E35.90289
G1 X146.272 Y88.75 E35.97619
G1 X145.775 Y89.461 E36.05817
G1 X145.775 Y133.533 E40.22297
G1 X146.12 Y134.006 E40.2783
G1 X146.636 Y134.935 E40.37872
G1 X147.098 Y135.925 E40.48196
G1 X147.389 Y136.644 E40.55526
G1 X147.666 Y137.673 E40.65596
G1 X147.876 Y138.755 E40.76012
G1 X147.984 Y139.523 E40.83341
G1 X148.004 Y140.581 E40.93341
G1 X147.947 Y141.673 E41.03674
G1 X147.866 Y142.445 E41.1101
G1 X147.626 Y143.487 E41.21115
G1 X147.304 Y144.537 E41.31493
G1 X147.039 Y145.266 E41.38823
G1 X146.562 Y146.204 E41.48768
G1 X145.999 Y147.142 E41.59106
G1 X145.566 Y147.785 E41.66432
G1 X144.868 Y148.59 E41.765
G1 X144.09 Y149.368 E41.86898
G1 X143.514 Y149.887 E41.94225
G1 X142.642 Y150.499 E42.04292
G1 X141.704 Y151.062 E42.1463
G1 X141.019 Y151.426 E42.21961
G1 X140.037 Y151.804 E42.31904
G1 X138.987 Y152.126 E42.42283
G1 X138.235 Y152.315 E42.4961
G1 X137.173 Y152.447 E42.59723
G1 X136.08 Y152.504 E42.70066
G1 X135.304 Y152.504 E42.774
G1 X134.253 Y152.376 E42.87405
G1 X133.172 Y152.166 E42.97811
G1 X132.419 Y151.979 E43.05143
G1 X131.425 Y151.598 E43.15203
G1 X130.435 Y151.136 E43.25527
G1 X129.75 Y150.772 E43.32857
G1 X129.039 Y150.275 E43.41055
G1 X93.967 Y150.275 E46.72486
G1 X93.494 Y150.62 E46.78018
G1 X92.565 Y151.136 E46.8806
G1 X91.575 Y151.598 E46.98385
G1 X90.856 Y151.889 E47.05714
G1 X89.828 Y152.166 E47.15776
G1 X88.747 Y152.376 E47.26182
G1 X87.979 Y152.484 E47.33511
G1 X86.92 Y152.504 E47.4352
G1 X85.827 Y152.447 E47.53863
G1 X85.056 Y152.367 E47.61188
G1 X84.013 Y152.126 E47.71304
G1 X82.963 Y151.804 E47.81683
G1 X82.234 Y151.539 E47.89013
G1 X81.296 Y151.062 E47.98957
G1 X80.358 Y150.499 E48.09296
G1 X79.715 Y150.066 E48.16621
G1 X78.91 Y149.368 E48.2669
G1 X78.132 Y148.59 E48.37087
G1 X77.613 Y148.014 E48.44414
G1 X77.001 Y147.142 E48.54482
G1 X76.438 Y146.204 E48.6482
G1 X76.074 Y145.519 E48.7215
G1 X75.696 Y144.537 E48.82094
G1 X75.374 Y143.487 E48.92473
G1 X75.185 Y142.735 E48.998
G1 X75.053 Y141.673 E49.09913
G1 X74.996 Y140.581 E49.20247
G1 X74.996 Y139.806 E49.2757
G1 X75.124 Y138.755 E49.37576
G1 X75.334 Y137.673 E49.47991
G1 X75.521 Y136.92 E49.55323
G1 X75.902 Y135.925 E49.65392
G1 X76.364 Y134.935 E49.75716
G1 X76.728 Y134.25 E49.83046
G1 X77.225 Y133.539 E49.91244
G1 X77.225 Y89.467 E54.07724
G1 X76.88 Y88.994 E54.13257
G1 X76.364 Y88.065 E54.23299
G1 X75.902 Y87.075 E54.33623
G1 X75.611 Y86.356 E54.40953
G1 X75.334 Y85.327 E54.51024
G1 X75.124 Y84.245 E54.61439
G1 X75.016 Y83.477 E54.68768
G1 X74.996 Y82.419 E54.78768
G1 X75.053 Y81.327 E54.89102
G1 X75.134 Y80.555 E54.96437
G1 X75.373 Y79.515 E55.06521
G1 X75.695 Y78.464 E55.16909
G1 X75.96 Y77.735 E55.24239
G1 X76.44 Y76.792 E55.34238
G1 X77.003 Y75.855 E55.44568
G1 X77.436 Y75.212 E55.51894
G1 X78.132 Y74.41 E55.61929
G0 F4800 X78.38 Y74.658
G1 F1800 X79.158 Y73.88 E55.72326
G1 X79.721 Y73.373 E55.79486
G1 X80.539 Y72.801 E55.88919
G1 X81.477 Y72.238 E55.99257
G1 X82.146 Y71.883 E56.06414
G1 X83.065 Y71.53 E56.15717
G1 X84.115 Y71.208 E56.26096
G1 X84.85 Y71.025 E56.33253
G1 X85.845 Y70.903 E56.42727
G1 X86.938 Y70.846 E56.5307
G1 X87.696 Y70.846 E56.60233
G1 X88.68 Y70.968 E56.69603
G1 X89.761 Y71.178 E56.80009
G1 X90.496 Y71.361 E56.87167
G1 X91.427 Y71.719 E56.96593
G1 X92.417 Y72.181 E57.06917
G1 X93.086 Y72.537 E57.14078
G1 X93.853 Y73.075 E57.22932
G1 X129.146 Y73.075 E60.56451
G1 X129.712 Y72.664 E60.63061
G1 X130.583 Y72.181 E60.72473
G1 X131.573 Y71.719 E60.82797
G1 X132.275 Y71.436 E60.89949
G1 X133.239 Y71.178 E60.9938
G1 X134.32 Y70.968 E61.09786
G1 X135.07 Y70.863 E61.16943
G1 X136.062 Y70.846 E61.26319
G1 X137.155 Y70.903 E61.36661
G1 X137.908 Y70.982 E61.43816
G1 X138.885 Y71.208 E61.53293
G1 X139.935 Y71.53 E61.63671
G1 X140.646 Y71.79 E61.70825
G1 X141.523 Y72.238 E61.80132
G1 X142.461 Y72.801 E61.9047
G1 X143.089 Y73.225 E61.97631
G1 X143.842 Y73.88 E62.07062
G1 X144.62 Y74.658 E62.17459
G1 X145.127 Y75.221 E62.24619
G1 X145.697 Y76.036 E62.34017
G1 X146.26 Y76.973 E62.44348
G1 X146.615 Y77.642 E62.51505
G1 X146.97 Y78.566 E62.60859
G1 X147.292 Y79.617 E62.71246
G1 X147.476 Y80.352 E62.78406
G1 X147.597 Y81.345 E62.8786
G1 X147.654 Y82.437 E62.98193
G1 X147.654 Y83.194 E63.05347
G1 X147.533 Y84.178 E63.14716
G1 X147.323 Y85.26 E63.25131
G1 X147.139 Y85.995 E63.32291
G1 X146.781 Y86.927 E63.41726
G1 X146.319 Y87.917 E63.5205
G1 X145.963 Y88.586 E63.59212
G1 X145.425 Y89.353 E63.68065
G1 X145.425 Y133.646 E67.86634
G1 X145.836 Y134.212 E67.93244
G1 X146.319 Y135.083 E68.02656
G1 X146.781 Y136.073 E68.1298
G1 X147.064 Y136.775 E68.20133
G1 X147.323 Y137.74 E68.29575
G1 X147.533 Y138.822 E68.3999
G1 X147.637 Y139.572 E68.47146
G1 X147.654 Y140.563 E68.56512
G1 X147.597 Y141.655 E68.66845
G1 X147.518 Y142.408 E68.74
G1 X147.292 Y143.385 E68.83477
G1 X146.97 Y144.435 E68.93855
G1 X146.71 Y145.146 E69.01009
G1 X146.262 Y146.023 E69.10316
G1 X145.699 Y146.961 E69.20654
G1 X145.275 Y147.589 E69.27815
G1 X144.62 Y148.342 E69.37246
G1 X143.842 Y149.12 E69.47643
G1 X143.279 Y149.627 E69.54803
G1 X142.461 Y150.199 E69.64236
G1 X141.523 Y150.762 E69.74574
G1 X140.854 Y151.117 E69.81731
G1 X139.935 Y151.47 E69.91034
G1 X138.885 Y151.792 E70.01413
G1 X138.15 Y151.975 E70.0857
G1 X137.155 Y152.097 E70.18044
G1 X136.062 Y152.154 E70.28386
G1 X135.304 Y152.154 E70.35549
G1 X134.32 Y152.032 E70.44919
G1 X133.239 Y151.822 E70.55326
G1 X132.504 Y151.639 E70.62484
G1 X131.573 Y151.281 E70.7191
G1 X130.583 Y150.819 E70.82234
G1 X129.914 Y150.463 E70.89395
G1 X129.147 Y149.925 E70.98249
G1 X93.854 Y149.925 E74.31768
G1 X93.288 Y150.336 E74.38378
G1 X92.417 Y150.819 E74.47789
G1 X91.427 Y151.281 E74.58114
G1 X90.725 Y151.564 E74.65266
G1 X89.761 Y151.822 E74.74697
G1 X88.68 Y152.032 E74.85103
G1 X87.93 Y152.137 E74.9226
G1 X86.938 Y152.154 E75.01635
G1 X85.845 Y152.097 E75.11978
G1 X85.092 Y152.018 E75.19133
G1 X84.115 Y151.792 E75.2861
G1 X83.065 Y151.47 E75.38988
G1 X82.354 Y151.21 E75.46142
G1 X81.477 Y150.762 E75.55449
G1 X80.539 Y150.199 E75.65787
G1 X79.911 Y149.775 E75.72948
G1 X79.158 Y149.12 E75.82379
G1 X78.38 Y148.342 E75.92776
G1 X77.873 Y147.779 E75.99936
G1 X77.301 Y146.961 E76.09368
G1 X76.738 Y146.023 E76.19707
G1 X76.383 Y145.354 E76.26864
G1 X76.03 Y144.435 E76.36167
G1 X75.708 Y143.385 E76.46545
G1 X75.525 Y142.65 E76.53703
G1 X75.403 Y141.655 E76.63176
G1 X75.346 Y140.563 E76.7351
G1 X75.346 Y139.806 E76.80663
G1 X75.467 Y138.822 E76.90032
G1 X75.677 Y137.74 E77.00448
G1 X75.861 Y137.005 E77.07608
G1 X76.219 Y136.073 E77.17043
G1 X76.681 Y135.083 E77.27367
G1 X77.037 Y134.414 E77.34528
G1 X77.575 Y133.647 E77.43382
G1 X77.575 Y89.354 E81.61951
G1 X77.164 Y88.788 E81.68561
G1 X76.681 Y87.917 E81.77973
G1 X76.219 Y86.927 E81.88297
G1 X75.936 Y86.225 E81.95449
G1 X75.677 Y85.26 E82.04891
G1 X75.467 Y84.178 E82.15307
G1 X75.363 Y83.428 E82.22462
G1 X75.346 Y82.437 E82.31829
G1 X75.403 Y81.345 E82.42162
G1 X75.482 Y80.592 E82.49317
G1 X75.708 Y79.617 E82.58775
G1 X76.03 Y78.566 E82.69163
G1 X76.29 Y77.855 E82.76317
G1 X76.74 Y76.973 E82.85674
G1 X77.303 Y76.036 E82.96004
G1 X77.727 Y75.408 E83.03165
G1 X78.38 Y74.658 E83.12562
G0 F4800 X78.627 Y74.905
G1 F1800 X79.405 Y74.127 E83.22959
G1 X79.955 Y73.634 E83.29939
G1 X80.719 Y73.101 E83.38742
G1 X81.657 Y72.538 E83.49081
G1 X82.31 Y72.193 E83.5606
G1 X83.168 Y71.865 E83.6474
G1 X84.218 Y71.543 E83.75119
G1 X84.935 Y71.365 E83.821
G1 X85.864 Y71.252 E83.90944
G1 X86.957 Y71.195 E84.01287
G1 X87.695 Y71.197 E84.08261
G1 X88.614 Y71.311 E84.17012
G1 X89.695 Y71.521 E84.27418
G1 X90.411 Y71.701 E84.34395
G1 X91.279 Y72.036 E84.43187
G1 X92.269 Y72.498 E84.53512
G1 X92.921 Y72.846 E84.60496
G1 X93.68 Y73.381 E84.69271
G1 X93.734 Y73.425 E84.69929
G1 X129.266 Y73.425 E88.05707
G1 X129.32 Y73.381 E88.06365
G1 X129.918 Y72.948 E88.13342
G1 X130.731 Y72.498 E88.22123
G1 X131.721 Y72.036 E88.32447
G1 X132.406 Y71.761 E88.39423
G1 X133.305 Y71.521 E88.48216
G1 X134.386 Y71.311 E88.58622
G1 X135.118 Y71.21 E88.65605
G1 X136.043 Y71.195 E88.74347
G1 X137.136 Y71.252 E88.8469
G1 X137.871 Y71.331 E88.91676
G1 X138.782 Y71.543 E89.00515
G1 X139.832 Y71.865 E89.10894
G1 X140.525 Y72.119 E89.17869
G1 X141.343 Y72.538 E89.26554
G1 X142.281 Y73.101 E89.36892
G1 X142.893 Y73.515 E89.43874
G1 X143.595 Y74.127 E89.52675
G1 X144.373 Y74.905 E89.63073
G1 X144.866 Y75.455 E89.70053
G1 X145.397 Y76.216 E89.78822
G1 X145.96 Y77.153 E89.89152
G1 X146.306 Y77.806 E89.96135
G1 X146.636 Y78.669 E90.04867
G1 X146.958 Y79.72 E90.15254
G1 X147.135 Y80.437 E90.22233
G1 X147.248 Y81.363 E90.31049
G1 X147.305 Y82.455 E90.41382
G1 X147.303 Y83.194 E90.48366
G1 X147.189 Y84.111 E90.57098
G1 X146.979 Y85.193 E90.67514
G1 X146.799 Y85.91 E90.745
G1 X146.464 Y86.779 E90.83301
G1 X146.002 Y87.769 E90.93625
G1 X145.654 Y88.421 E91.00609
G1 X145.119 Y89.18 E91.09384
G1 X145.075 Y89.234 E91.10043
G1 X145.075 Y133.766 E95.3087
G1 X145.119 Y133.82 E95.31528
G1 X145.552 Y134.418 E95.38505
G1 X146.002 Y135.231 E95.47287
G1 X146.464 Y136.221 E95.57611
G1 X146.739 Y136.906 E95.64586
G1 X146.979 Y137.807 E95.73397
G1 X147.189 Y138.889 E95.83813
G1 X147.29 Y139.62 E95.90787
G1 X147.305 Y140.545 E95.99529
G1 X147.248 Y141.637 E96.09863
G1 X147.169 Y142.371 E96.16839
G1 X146.957 Y143.282 E96.25678
G1 X146.635 Y144.332 E96.36056
G1 X146.381 Y145.025 E96.43031
G1 X145.962 Y145.843 E96.51717
G1 X145.399 Y146.781 E96.62055
G1 X144.985 Y147.393 E96.69037
G1 X144.373 Y148.095 E96.77838
G1 X143.595 Y148.873 E96.88235
G1 X143.045 Y149.366 E96.95215
G1 X142.281 Y149.899 E97.04019
G1 X141.343 Y150.462 E97.14357
G1 X140.69 Y150.807 E97.21336
G1 X139.832 Y151.135 E97.30016
G1 X138.782 Y151.457 E97.40395
G1 X138.065 Y151.635 E97.47376
G1 X137.136 Y151.748 E97.5622
G1 X136.043 Y151.805 E97.66563
G1 X135.305 Y151.803 E97.73537
G1 X134.386 Y151.689 E97.82288
G1 X133.305 Y151.479 E97.92694
G1 X132.589 Y151.299 E97.99671
G1 X131.721 Y150.964 E98.08463
G1 X130.731 Y150.502 E98.18788
G1 X130.079 Y150.154 E98.25772
G1 X129.32 Y149.619 E98.34547
G1 X129.266 Y149.575 E98.35205
G1 X93.734 Y149.575 E101.70983
